Numix-Circle/48x48/apps/steam_icon_200510.svg

<?xml version="1.0" encoding="UTF-8" standalone="no"?>
<svg
   xmlns:dc="http://purl.org/dc/elements/1.1/"
   xmlns:cc="http://creativecommons.org/ns#"
   xmlns:rdf="http://www.w3.org/1999/02/22-rdf-syntax-ns#"
   xmlns:svg="http://www.w3.org/2000/svg"
   xmlns="http://www.w3.org/2000/svg"
   xmlns:xlink="http://www.w3.org/1999/xlink"
   xmlns:sodipodi="http://sodipodi.sourceforge.net/DTD/sodipodi-0.dtd"
   xmlns:inkscape="http://www.inkscape.org/namespaces/inkscape"
   viewBox="0 0 48 48"
   id="svg2"
   version="1.1"
   inkscape:version="0.91 r13725"
   width="100%"
   height="100%"
   sodipodi:docname="steam_icon_200510.svg">
  <metadata
     id="metadata61">
    <rdf:RDF>
      <cc:Work
         rdf:about="">
        <dc:format>image/svg+xml</dc:format>
        <dc:type
           rdf:resource="http://purl.org/dc/dcmitype/StillImage" />
      </cc:Work>
    </rdf:RDF>
  </metadata>
  <sodipodi:namedview
     pagecolor="#ffffff"
     bordercolor="#666666"
     borderopacity="1"
     objecttolerance="10"
     gridtolerance="10"
     guidetolerance="10"
     inkscape:pageopacity="0"
     inkscape:pageshadow="2"
     inkscape:window-width="1366"
     inkscape:window-height="713"
     id="namedview59"
     showgrid="false"
     inkscape:zoom="19.666667"
     inkscape:cx="20.578661"
     inkscape:cy="12.577424"
     inkscape:window-x="0"
     inkscape:window-y="28"
     inkscape:window-maximized="1"
     inkscape:current-layer="svg2">
    <inkscape:grid
       type="xygrid"
       id="grid3817" />
  </sodipodi:namedview>
  <defs
     id="defs4">
    <linearGradient
       id="linearGradient3764"
       x1="1"
       x2="47"
       gradientUnits="userSpaceOnUse"
       gradientTransform="matrix(0,-1,1,0,-1.5e-6,47.999998)">
      <stop
         stop-color="#6fc1e3"
         stop-opacity="1"
         id="stop7" />
      <stop
         offset="1"
         stop-color="#80c7e6"
         stop-opacity="1"
         id="stop9" />
    </linearGradient>
  </defs>
  <g
     id="g21">
    <path
       d="m 36.31 5 c 5.859 4.062 9.688 10.831 9.688 18.5 c 0 12.426 -10.07 22.5 -22.5 22.5 c -7.669 0 -14.438 -3.828 -18.5 -9.688 c 1.037 1.822 2.306 3.499 3.781 4.969 c 4.085 3.712 9.514 5.969 15.469 5.969 c 12.703 0 23 -10.298 23 -23 c 0 -5.954 -2.256 -11.384 -5.969 -15.469 c -1.469 -1.475 -3.147 -2.744 -4.969 -3.781 z m 4.969 3.781 c 3.854 4.113 6.219 9.637 6.219 15.719 c 0 12.703 -10.297 23 -23 23 c -6.081 0 -11.606 -2.364 -15.719 -6.219 c 4.16 4.144 9.883 6.719 16.219 6.719 c 12.703 0 23 -10.298 23 -23 c 0 -6.335 -2.575 -12.06 -6.719 -16.219 z"
       opacity="0.05"
       id="path23" />
    <path
       d="m 41.28 8.781 c 3.712 4.085 5.969 9.514 5.969 15.469 c 0 12.703 -10.297 23 -23 23 c -5.954 0 -11.384 -2.256 -15.469 -5.969 c 4.113 3.854 9.637 6.219 15.719 6.219 c 12.703 0 23 -10.298 23 -23 c 0 -6.081 -2.364 -11.606 -6.219 -15.719 z"
       opacity="0.1"
       id="path25" />
    <path
       d="m 31.25 2.375 c 8.615 3.154 14.75 11.417 14.75 21.13 c 0 12.426 -10.07 22.5 -22.5 22.5 c -9.708 0 -17.971 -6.135 -21.12 -14.75 a 23 23 0 0 0 44.875 -7 a 23 23 0 0 0 -16 -21.875 z"
       opacity="0.2"
       id="path27" />
  </g>
  <g
     id="g29">
    <path
       d="m 24 1 c 12.703 0 23 10.297 23 23 c 0 12.703 -10.297 23 -23 23 -12.703 0 -23 -10.297 -23 -23 0 -12.703 10.297 -23 23 -23 z"
       fill="url(#linearGradient3764)"
       fill-opacity="1"
       id="path31" />
  </g>
  <g
     id="g33" />
  <use
     x="0"
     y="0"
     xlink:href="#path13"
     id="use3947"
     transform="translate(1,1)"
     width="48"
     height="48"
     style="fill:#000000;fill-opacity:1;opacity:0.1" />
  <path
     sodipodi:type="arc"
     style="opacity:0.35897437999999998;fill:none;stroke:none;stroke-width:10;stroke-miterlimit:4;stroke-opacity:1;stroke-dasharray:none"
     id="path3853"
     sodipodi:cx="26"
     sodipodi:cy="34"
     sodipodi:rx="10"
     sodipodi:ry="3"
     d="m 36,34 a 10,3 0 1 1 -20,0 10,3 0 1 1 20,0 z"
     transform="matrix(1.45,0,0,1,-7.2,0)" />
  <path
     style="fill:#000000;stroke:none;stroke-width:1px;stroke-linecap:butt;stroke-linejoin:miter;stroke-opacity:1;fill-opacity:1;opacity:0.15"
     d="M 11.4375 4.75 C 9.6162739 5.9389346 7.976778 7.3578886 6.5625 9 L 22.0625 27.375 L 9.84375 42.125 C 11.173445 43.165891 12.614791 44.049908 14.15625 44.78125 L 24 30 L 33.84375 44.78125 C 35.385209 44.049908 36.826555 43.165891 38.15625 42.125 L 25.9375 27.375 L 41.4375 9 C 40.023222 7.3578886 38.383726 5.9389346 36.5625 4.75 L 24 25.125 L 11.4375 4.75 z "
     id="path3819" />
  <g
     id="g55">
    <path
       d="m 40.03 7.531 c 3.712 4.084 5.969 9.514 5.969 15.469 0 12.703 -10.297 23 -23 23 c -5.954 0 -11.384 -2.256 -15.469 -5.969 4.178 4.291 10.01 6.969 16.469 6.969 c 12.703 0 23 -10.298 23 -23 0 -6.462 -2.677 -12.291 -6.969 -16.469 z"
       opacity="0.1"
       id="path57" />
  </g>
  <path
     style="fill:#2d2d2d;fill-opacity:1"
     d="M 24 9 C 21.663183 9 19.442109 9.5433289 17.46875 10.5 L 17.375 10.46875 C 17.363553 10.499854 17.355124 10.531364 17.34375 10.5625 C 12.398682 13.017237 9 18.113516 9 24 C 9 29.89652 12.41625 34.987632 17.375 37.4375 C 17.387918 37.467412 17.393229 37.50139 17.40625 37.53125 L 17.5 37.5 C 19.466936 38.448969 21.673219 39 24 39 C 26.326781 39 28.533064 38.448969 30.5 37.5 L 30.59375 37.53125 C 30.606775 37.501383 30.612078 37.467419 30.625 37.4375 C 35.58375 34.987632 39 29.89652 39 24 C 39 18.113516 35.601318 13.017237 30.65625 10.5625 C 30.644876 10.531374 30.636447 10.499844 30.625 10.46875 L 30.53125 10.5 C 28.557891 9.5433289 26.336817 9 24 9 z M 24.9375 10.90625 C 26.399579 11.009269 27.803773 11.365183 29.09375 11.90625 C 29.102683 11.909997 29.116077 11.902484 29.125 11.90625 C 29.743784 13.704841 30.239918 15.567354 30.59375 17.4375 L 24.9375 17.4375 L 24.9375 10.90625 z M 23.0625 10.9375 L 23.0625 17.4375 L 17.40625 17.4375 C 17.758242 15.576949 18.26077 13.727296 18.875 11.9375 C 18.87607 11.934381 18.905179 11.940618 18.90625 11.9375 C 20.194766 11.394197 21.600741 11.043782 23.0625 10.9375 z M 31.53125 13.25 C 33.096185 14.345899 34.414432 15.77716 35.375 17.4375 L 32.53125 17.4375 C 32.278216 16.035659 31.9273 14.619193 31.53125 13.25 z M 16.46875 13.28125 C 16.076486 14.641459 15.719959 16.045335 15.46875 17.4375 L 12.65625 17.4375 C 13.609267 15.794243 14.921333 14.37095 16.46875 13.28125 z M 11.75 19.3125 L 15.1875 19.3125 C 15.022234 20.558998 14.921756 21.815098 14.875 23.0625 L 10.9375 23.0625 C 11.030459 21.743879 11.297591 20.493671 11.75 19.3125 z M 17.125 19.3125 L 23.0625 19.3125 L 23.0625 23.0625 L 16.78125 23.0625 C 16.831462 21.808923 16.949816 20.567006 17.125 19.3125 z M 24.9375 19.3125 L 30.875 19.3125 C 31.050184 20.566912 31.168538 21.809005 31.21875 23.0625 L 24.9375 23.0625 L 24.9375 19.3125 z M 32.8125 19.3125 L 36.25 19.3125 C 36.698798 20.489548 37.00121 21.749451 37.09375 23.0625 L 33.125 23.0625 C 33.078205 21.815094 32.977811 20.558901 32.8125 19.3125 z M 10.9375 24.9375 L 14.84375 24.9375 C 14.858405 26.196896 14.919461 27.451381 15.0625 28.6875 L 11.75 28.6875 C 11.301891 27.511661 11.029914 26.248732 10.9375 24.9375 z M 16.75 24.9375 L 23.0625 24.9375 L 23.0625 28.6875 L 17 28.6875 C 16.851179 27.453419 16.763976 26.201665 16.75 24.9375 z M 24.9375 24.9375 L 31.25 24.9375 C 31.236024 26.201602 31.148821 27.453418 31 28.6875 L 24.9375 28.6875 L 24.9375 24.9375 z M 33.15625 24.9375 L 37.09375 24.9375 C 37.001289 26.249784 36.698427 27.510678 36.25 28.6875 L 32.9375 28.6875 C 33.080537 27.451248 33.141625 26.196946 33.15625 24.9375 z M 12.65625 30.5625 L 15.34375 30.5625 C 15.586682 31.968801 15.920371 33.346663 16.34375 34.6875 C 14.832832 33.601617 13.589827 32.181225 12.65625 30.5625 z M 17.28125 30.5625 L 23.0625 30.5625 L 23.0625 37.09375 C 21.55606 36.987597 20.134321 36.63242 18.8125 36.0625 C 18.115567 34.3188 17.625928 32.467764 17.28125 30.5625 z M 24.9375 30.5625 L 30.71875 30.5625 C 30.373341 32.471885 29.855429 34.315126 29.15625 36.0625 C 27.849128 36.619852 26.423181 36.988909 24.9375 37.09375 L 24.9375 30.5625 z M 32.65625 30.5625 L 35.375 30.5625 C 34.438774 32.186254 33.171994 33.59967 31.65625 34.6875 C 32.079721 33.346391 32.413296 31.968996 32.65625 30.5625 z "
     id="path13" />
  <use
     x="0"
     y="0"
     xlink:href="#path3853"
     id="use3945"
     transform="translate(1,1)"
     width="48"
     height="48" />
</svg>

<svg xmlns="http://www.w3.org/2000/svg" xmlns:xlink="http://www.w3.org/1999/xlink" viewBox="0 0 48 48"><defs><linearGradient id="linearGradient3764" x1="1" x2="47" gradientUnits="userSpaceOnUse" gradientTransform="matrix(0,-1,1,0,-1.5e-6,47.999998)"><stop stop-color="#6fc1e3" stop-opacity="1"/><stop offset="1" stop-color="#80c7e6" stop-opacity="1"/></linearGradient></defs><g><path d="m 36.31 5 c 5.859 4.062 9.688 10.831 9.688 18.5 c 0 12.426 -10.07 22.5 -22.5 22.5 c -7.669 0 -14.438 -3.828 -18.5 -9.688 c 1.037 1.822 2.306 3.499 3.781 4.969 c 4.085 3.712 9.514 5.969 15.469 5.969 c 12.703 0 23 -10.298 23 -23 c 0 -5.954 -2.256 -11.384 -5.969 -15.469 c -1.469 -1.475 -3.147 -2.744 -4.969 -3.781 z m 4.969 3.781 c 3.854 4.113 6.219 9.637 6.219 15.719 c 0 12.703 -10.297 23 -23 23 c -6.081 0 -11.606 -2.364 -15.719 -6.219 c 4.16 4.144 9.883 6.719 16.219 6.719 c 12.703 0 23 -10.298 23 -23 c 0 -6.335 -2.575 -12.06 -6.719 -16.219 z" opacity="0.05"/><path d="m 41.28 8.781 c 3.712 4.085 5.969 9.514 5.969 15.469 c 0 12.703 -10.297 23 -23 23 c -5.954 0 -11.384 -2.256 -15.469 -5.969 c 4.113 3.854 9.637 6.219 15.719 6.219 c 12.703 0 23 -10.298 23 -23 c 0 -6.081 -2.364 -11.606 -6.219 -15.719 z" opacity="0.1"/><path d="m 31.25 2.375 c 8.615 3.154 14.75 11.417 14.75 21.13 c 0 12.426 -10.07 22.5 -22.5 22.5 c -9.708 0 -17.971 -6.135 -21.12 -14.75 a 23 23 0 0 0 44.875 -7 a 23 23 0 0 0 -16 -21.875 z" opacity="0.2"/></g><g><path d="m 24 1 c 12.703 0 23 10.297 23 23 c 0 12.703 -10.297 23 -23 23 -12.703 0 -23 -10.297 -23 -23 0 -12.703 10.297 -23 23 -23 z" fill="url(#linearGradient3764)" fill-opacity="1"/></g><use xlink:href="#path13" transform="translate(1,1)" width="48" height="48" opacity="0.1"/><path id="path3853" d="m 36 34 a 10 3 0 1 1 -20 0 10 3 0 1 1 20 0 z" transform="matrix(1.45,0,0,1,-7.2,0)" opacity="0.359" fill="none" stroke="none"/><path d="m 11.438 4.75 c -1.821 1.189 -3.461 2.608 -4.875 4.25 l 15.5 18.375 l -12.219 14.75 c 1.33 1.041 2.771 1.925 4.313 2.656 l 9.844 -14.781 l 9.844 14.781 c 1.541 -0.731 2.983 -1.615 4.313 -2.656 l -12.219 -14.75 l 15.5 -18.375 c -1.414 -1.642 -3.054 -3.061 -4.875 -4.25 l -12.563 20.375 l -12.563 -20.375 z" opacity="0.15" fill="#000" stroke="none" fill-opacity="1"/><g><path d="m 40.03 7.531 c 3.712 4.084 5.969 9.514 5.969 15.469 0 12.703 -10.297 23 -23 23 c -5.954 0 -11.384 -2.256 -15.469 -5.969 4.178 4.291 10.01 6.969 16.469 6.969 c 12.703 0 23 -10.298 23 -23 0 -6.462 -2.677 -12.291 -6.969 -16.469 z" opacity="0.1"/></g><path d="m 24 9 c -2.337 0 -4.558 0.543 -6.531 1.5 l -0.094 -0.031 c -0.011 0.031 -0.02 0.063 -0.031 0.094 c -4.945 2.455 -8.344 7.551 -8.344 13.438 c 0 5.897 3.416 10.988 8.375 13.438 c 0.013 0.03 0.018 0.064 0.031 0.094 l 0.094 -0.031 c 1.967 0.949 4.173 1.5 6.5 1.5 c 2.327 0 4.533 -0.551 6.5 -1.5 l 0.094 0.031 c 0.013 -0.03 0.018 -0.064 0.031 -0.094 c 4.959 -2.45 8.375 -7.541 8.375 -13.438 c 0 -5.886 -3.399 -10.983 -8.344 -13.438 c -0.011 -0.031 -0.02 -0.063 -0.031 -0.094 l -0.094 0.031 c -1.973 -0.957 -4.194 -1.5 -6.531 -1.5 z m 0.938 1.906 c 1.462 0.103 2.866 0.459 4.156 1 c 0.009 0.004 0.022 -0.004 0.031 0 c 0.619 1.799 1.115 3.661 1.469 5.531 l -5.656 0 l 0 -6.531 z m -1.875 0.031 l 0 6.5 l -5.656 0 c 0.352 -1.861 0.855 -3.71 1.469 -5.5 c 0.0001 -0.003 0.03 0.003 0.031 0 c 1.289 -0.543 2.694 -0.894 4.156 -1 z m 8.469 2.313 c 1.565 1.096 2.883 2.527 3.844 4.188 l -2.844 0 c -0.253 -1.402 -0.604 -2.818 -1 -4.188 z m -15.06 0.031 c -0.392 1.36 -0.749 2.764 -1 4.156 l -2.813 0 c 0.953 -1.643 2.265 -3.067 3.813 -4.156 z m -4.719 6.03 l 3.438 0 c -0.165 1.246 -0.266 2.503 -0.313 3.75 l -3.938 0 c 0.093 -1.319 0.36 -2.569 0.813 -3.75 z m 5.375 0 l 5.938 0 l 0 3.75 l -6.281 0 c 0.05 -1.254 0.169 -2.495 0.344 -3.75 z m 7.813 0 l 5.938 0 c 0.175 1.254 0.294 2.497 0.344 3.75 l -6.281 0 l 0 -3.75 z m 7.875 0 l 3.438 0 c 0.449 1.177 0.751 2.437 0.844 3.75 l -3.969 0 c -0.047 -1.247 -0.147 -2.504 -0.313 -3.75 z m -21.875 5.625 l 3.906 0 c 0.015 1.259 0.076 2.514 0.219 3.75 l -3.313 0 c -0.448 -1.176 -0.72 -2.439 -0.813 -3.75 z m 5.813 0 l 6.313 0 l 0 3.75 l -6.06 0 c -0.149 -1.234 -0.236 -2.486 -0.25 -3.75 z m 8.188 0 l 6.313 0 c -0.014 1.264 -0.101 2.516 -0.25 3.75 l -6.06 0 l 0 -3.75 z m 8.219 0 l 3.938 0 c -0.092 1.312 -0.395 2.573 -0.844 3.75 l -3.313 0 c 0.143 -1.236 0.204 -2.491 0.219 -3.75 z m -20.5 5.625 l 2.688 0 c 0.243 1.406 0.577 2.784 1 4.125 c -1.511 -1.086 -2.754 -2.506 -3.688 -4.125 z m 4.625 0 l 5.781 0 l 0 6.531 c -1.506 -0.106 -2.928 -0.461 -4.25 -1.031 c -0.697 -1.744 -1.187 -3.595 -1.531 -5.5 z m 7.656 0 l 5.781 0 c -0.345 1.909 -0.863 3.753 -1.563 5.5 c -1.307 0.557 -2.733 0.926 -4.219 1.031 l 0 -6.531 z m 7.719 0 l 2.719 0 c -0.936 1.624 -2.203 3.037 -3.719 4.125 c 0.423 -1.341 0.757 -2.719 1 -4.125 z" id="path13" fill="#2d2d2d" fill-opacity="1"/><use xlink:href="#path3853" transform="translate(1,1)" width="48" height="48"/></svg>
